X: 87
T: The Sacilian Peasant
%R: jig
B: Chas & Sam Thompson "Twenty Four Country Dances for the Year 1776", London 1776, p.44 #1
F: http://www.vwml.org/browse/browse-collections-dance-tune-books/browse-thompsons1776#
Z: 2014 John Chambers <jc:trillian.mit.edu> (added dance description)
M: 6/8
L: 1/8
K: D
% - - - - - - - - - - - - - - - - - - - - - - - - - - - - -
|:\
[f2A2D2]f efg | afd c2A | FAd GBd | efg {f}e3 |\
[f2A2D2]f efg | afd c2A | FAd Bgf | edc d3 :|
|:\
{fg}afd ecA | afd ecA | afd Bgf | efd cBA |\
afd ecA | afd ecA | afd Bgf | edc d3 :|
% - - - - - - - - - - Dance description - - - - - - - - - -
%%begintext align
%% Cast off 2 Cu. & foot it .| up again :| Gallop down
%% 1 Cu. up again & cast off .|| hands 4 quite round at
%% bottom :||
%%endtext

%%sep 1 1 500
%%sep 1 1 500
